!!!COM: Gaspar van Weerbeke
!!!CDT: ~1450-~1517
!!!OPR: In honorem sancti spiritus
!!!OTL: Veni, sancte spiritus
!!!ONM: 2
!!!AGN: Motet
!!!SCT: Gas0303b
!!!SCA: Gas0303b
!!!voices: 4
**kern	**text	**kern	**text	**kern	**text	**kern	**text
*part4	*part4	*part3	*part3	*part2	*part2	*part1	*part1
*staff4	*staff4	*staff3	*staff3	*staff2	*staff2	*staff1	*staff1
*I"Bassus	*	*I"Tenor	*	*I"Altus	*	*I"Superius	*
*I'B	*	*I'T	*	*I'A	*	*I'S	*
*clefF4	*	*clefGv2	*	*clefGv2	*	*clefG2	*
*k[]	*	*k[]	*	*k[]	*	*k[]	*
*M2/2	*	*M2/2	*	*M2/2	*	*M2/2	*
*met(C|)	*	*met(C|)	*	*met(C|)	*	*met(C|)	*
=1	=1	=1	=1	=1	=1	=1	=1
1r	.	1r	.	1d	Ve-	1r	.
=2	=2	=2	=2	=2	=2	=2	=2
1r	.	1r	.	2B	-ni,	1g	Ve-
.	.	.	.	[2c	sanc-	.	.
=3	=3	=3	=3	=3	=3	=3	=3
1r	.	1r	.	2c]	.	2e	-ni,
.	.	.	.	2A	-te	[2f	sanc-
=4	=4	=4	=4	=4	=4	=4	=4
1r	.	1r	.	4.d	spi-	2f]	.
.	.	.	.	8e	.	.	.
.	.	.	.	4.f	.	2d	-te
.	.	.	.	8e	.	.	.
=5	=5	=5	=5	=5	=5	=5	=5
*	*	*	*	*	*	*lig	*
1r	.	1r	.	8dL	.	2f	spi-
.	.	.	.	8cJ	.	.	.
.	.	.	.	4.d	.	.	.
.	.	.	.	.	.	[2a	.
.	.	.	.	8c	.	.	.
.	.	.	.	4A	.	.	.
=6	=6	=6	=6	=6	=6	=6	=6
1r	.	1r	.	4.c	.	4a]	.
*	*	*	*	*	*	*Xlig	*
.	.	.	.	.	.	4g	.
.	.	.	.	8d	.	.	.
.	.	.	.	2B	.	[2g	.
=7	=7	=7	=7	=7	=7	=7	=7
1D	Ve-	1r	.	1A	-ri-	2g]	.
.	.	.	.	.	.	2f#i	-ri-
!!LO:LB:g=original
=8	=8	=8	=8	=8	=8	=8	=8
2BB	-ni,	1G	Ve-	1G	-tus,	1g	-tus,
[2C	sanc-	.	.	.	.	.	.
=9	=9	=9	=9	=9	=9	=9	=9
2C]	.	2E	-ni,	1r	.	1r	.
2AA	-te	[2F	sanc-	.	.	.	.
=10	=10	=10	=10	=10	=10	=10	=10
4.D	spi-	2F]	.	1r	.	1r	.
8E	.	.	.	.	.	.	.
4.F	.	2D	-te	.	.	.	.
8E	.	.	.	.	.	.	.
=11	=11	=11	=11	=11	=11	=11	=11
*	*	*lig	*	*	*	*	*
8DL	.	2F	spi-	1r	.	1r	.
8CJ	.	.	.	.	.	.	.
4.D	.	.	.	.	.	.	.
.	.	[2A	.	.	.	.	.
8C	.	.	.	.	.	.	.
4AA	.	.	.	.	.	.	.
=12	=12	=12	=12	=12	=12	=12	=12
4.C	.	4A]	.	1r	.	1r	.
*	*	*Xlig	*	*	*	*	*
.	.	4G	.	.	.	.	.
8D	.	.	.	.	.	.	.
2BB	.	[2G	.	.	.	.	.
=13	=13	=13	=13	=13	=13	=13	=13
1AA	-ri-	2G]	.	2r	.	1r	.
.	.	2F#i	-ri-	2c	Re-	.	.
=14	=14	=14	=14	=14	=14	=14	=14
2GG	-tus,	2G	-tus,	2B	-ple	2r	.
2GG	Re-	2G	Re-	2d	tu-	2g	Re-
=15	=15	=15	=15	=15	=15	=15	=15
2C	-ple	2G	-ple	2c	-o-	2e	-ple
4BB	tu-	2G	tu-	2d	.	4d	tu-
4GG	.	.	.	.	.	[4g	-o-
!!LO:LB:g=original
=16	=16	=16	=16	=16	=16	=16	=16
1D	-o-	1A	-o-	1d	-rum	4g]	.
.	.	.	.	.	.	8f#iL	.
.	.	.	.	.	.	8eJ	.
.	.	.	.	.	.	2f#i	.
=17	=17	=17	=17	=17	=17	=17	=17
2E	-rum	2G	-rum	4B	cor-	2g	-rum
.	.	.	.	4c	.	.	.
2D	cor-	2A	cor-	2d	-da	2f	cor-
=18	=18	=18	=18	=18	=18	=18	=18
1C	-da	1c	-da	2.e	fi-	4.e	-da
.	.	.	.	.	.	8f	.
.	.	.	.	.	.	4g	.
.	.	.	.	4c	.	4a	fi-
=19	=19	=19	=19	=19	=19	=19	=19
4r	.	2G	fi-	4d	-de-	2b	-de-
4G	fi-	.	.	4e	.	.	.
2F	-de-	2A	.	2f	.	2cc	.
=20	=20	=20	=20	=20	=20	=20	=20
4G	.	4G	-de-	4d	-li-	4b	.
4D	.	4F	.	4f	.	2a	.
2F	-li-	2A	.	2c	-um	.	.
.	.	.	.	.	.	8gL	.
.	.	.	.	.	.	8fJ	.
=21	=21	=21	=21	=21	=21	=21	=21
1C	-um	1G	-li-	2r	.	4e	.
.	.	.	.	.	.	2f	-li-
.	.	.	.	2c	Et	.	.
.	.	.	.	.	.	4e	.
=22	=22	=22	=22	=22	=22	=22	=22
2r	.	1F	-um	2d	tu-	2f	-um
2F	Et	.	.	4c	.	4r	.
.	.	.	.	4A	.	4f	Et
!!LO:LB:g=original
=23	=23	=23	=23	=23	=23	=23	=23
2E	tu-	2r	.	2B	.	2g	tu-
2F	-i	2F	Et	2G	-i	2a	-i
=24	=24	=24	=24	=24	=24	=24	=24
1r	.	2G	tu-	2d	a-	2b	a-
.	.	2A	-i	8cL	-mo-	4.cc	-mo-
.	.	.	.	8B	.	.	.
.	.	.	.	8A	.	.	.
.	.	.	.	8GJ	.	8b	.
=25	=25	=25	=25	=25	=25	=25	=25
2.F	a-	2.c	a-	4A	.	8aL	.
.	.	.	.	.	.	8gJ	.
.	.	.	.	4F	-ris,	4.a	.
.	.	.	.	4r	.	.	.
.	.	.	.	.	.	8gL	.
*	*	*	*	*	*edit	*	*
[4D	-mo-	[4d	-mo-	4A	a-	8f	.
.	.	.	.	.	.	8eJ	.
=26	=26	=26	=26	=26	=26	=26	=26
8DL]	.	8dL]	.	2d	-mo-	8fL	.
8EJ	.	8cJ	.	.	.	8eJ	.
4F	.	4A	.	.	.	2a	.
2E	-ris	2B	.	2e	.	.	.
.	.	.	.	.	.	4g#i	.
=27	=27	=27	=27	=27	=27	=27	=27
2.F	In	2A	-ris	2c	-ris	2a	-ris
.	.	2r	.	2r	.	2r	.
4E	.	.	.	.	.	.	.
=28	=28	=28	=28	=28	=28	=28	=28
*	*	*	*	*	*Xedit	*	*
2D	e-	1r	.	2.f	In	1r	.
2C	-is	.	.	.	.	.	.
.	.	.	.	4e	.	.	.
=29	=29	=29	=29	=29	=29	=29	=29
2D	ig-	1r	.	2d	e-	1r	.
2AA	-nem	.	.	2c	-is	.	.
!!LO:PB:g=original
=30	=30	=30	=30	=30	=30	=30	=30
2BB	ac-	1r	.	8dL	ig-	1r	.
.	.	.	.	8c	.	.	.
.	.	.	.	8B	.	.	.
.	.	.	.	8AJ	.	.	.
4C	-cen-	.	.	4G	.	.	.
4E	.	.	.	[4c	.	.	.
=31	=31	=31	=31	=31	=31	=31	=31
2D	.	1r	.	4c]	.	1r	.
.	.	.	.	4B	.	.	.
2C	-de	.	.	2c	-nem	.	.
=32	=32	=32	=32	=32	=32	=32	=32
1r	.	1r	.	1r	.	2.cc	In
.	.	.	.	.	.	4b	.
=33	=33	=33	=33	=33	=33	=33	=33
1r	.	2.c	In	1r	.	2a	e-
.	.	.	.	.	.	2g	-is
.	.	4B	.	.	.	.	.
=34	=34	=34	=34	=34	=34	=34	=34
1r	.	2A	e-	1r	.	2a	ig-
.	.	2G	-is	.	.	2e	-nem
=35	=35	=35	=35	=35	=35	=35	=35
1r	.	2A	ig-	1r	.	2f	ac-
.	.	2E	-nem	.	.	8gL	-cen-
.	.	.	.	.	.	8f	.
.	.	.	.	.	.	8e	.
.	.	.	.	.	.	8dJ	.
=36	=36	=36	=36	=36	=36	=36	=36
1r	.	4r	.	1r	.	4c	.
.	.	4c	ac-	.	.	4e	.
.	.	4B	.	.	.	4d	.
.	.	4G	.	.	.	[4g	.
!!LO:LB:g=original
=37	=37	=37	=37	=37	=37	=37	=37
1r	.	2A	-cen-	1r	.	4g]	.
.	.	.	.	.	.	4f#i	.
.	.	2G	-de	.	.	2g	-de
=38	=38	=38	=38	=38	=38	=38	=38
1r	.	1r	.	4r	.	1r	.
.	.	.	.	4F	Qui	.	.
.	.	.	.	2G	per	.	.
=39	=39	=39	=39	=39	=39	=39	=39
4r	.	1r	.	4A	di-	1r	.
4FF	Qui	.	.	4c	.	.	.
2GG	per	.	.	4B	-ver-	.	.
.	.	.	.	4d	-si-	.	.
=40	=40	=40	=40	=40	=40	=40	=40
2AA	di-	1r	.	4.c	-ta-	1r	.
.	.	.	.	8BL	.	.	.
2C	.	.	.	8A	.	.	.
.	.	.	.	8GJ	.	.	.
.	.	.	.	[4A	.	.	.
=41	=41	=41	=41	=41	=41	=41	=41
2D	-ver-	1r	.	4A]	.	1r	.
.	.	.	.	8GL	.	.	.
.	.	.	.	8FJ	.	.	.
4C	-si-	.	.	4E	.	.	.
4AA	.	.	.	[4A	.	.	.
=42	=42	=42	=42	=42	=42	=42	=42
2BB	-ta-	1r	.	4A]	.	1r	.
.	.	.	.	4G#i	.	.	.
2AA	-tem	.	.	2A	-tem	.	.
=43	=43	=43	=43	=43	=43	=43	=43
1r	.	1r	.	1r	.	2.cc	Lin
.	.	.	.	.	.	4b	.
=44	=44	=44	=44	=44	=44	=44	=44
1r	.	2.c	Lin	1r	.	2a	gua-
.	.	.	.	.	.	2g	-rum
.	.	4B	.	.	.	.	.
!!LO:LB:g=original
=45	=45	=45	=45	=45	=45	=45	=45
1r	.	2A	gua-	1r	.	4a	cunc-
.	.	.	.	.	.	4cc	.
.	.	2G	-rum	.	.	8bL	-ta-
.	.	.	.	.	.	8a	.
.	.	.	.	.	.	8g	.
.	.	.	.	.	.	8fJ	.
=46	=46	=46	=46	=46	=46	=46	=46
1r	.	4A	cunc-	1r	.	4e	.
.	.	4B	.	.	.	2g	.
.	.	4c	-ta-	.	.	.	.
.	.	4A	.	.	.	[4f	.
=47	=47	=47	=47	=47	=47	=47	=47
1r	.	2G	.	2r	.	4f]	.
.	.	.	.	.	.	4e	.
.	.	2F	-rum	4r	.	2f	-rum
.	.	.	.	4F	gen-	.	.
=48	=48	=48	=48	=48	=48	=48	=48
2r	.	1r	.	2G	.	1r	.
4r	.	.	.	2A	-tes	.	.
4FF	gen-	.	.	.	.	.	.
=49	=49	=49	=49	=49	=49	=49	=49
2GG	.	1r	.	4G	In	1r	.
.	.	.	.	4B	.	.	.
2AA	-tes	.	.	4A	u-	.	.
.	.	.	.	4c	-ni-	.	.
=50	=50	=50	=50	=50	=50	=50	=50
4GG	In	1r	.	4B	-ta-	1r	.
4BB	.	.	.	4d	.	.	.
4AA	u-	.	.	4c	.	.	.
4C	-ni-	.	.	8BL	.	.	.
.	.	.	.	8AJ	.	.	.
=51	=51	=51	=51	=51	=51	=51	=51
4BB	-ta-	1r	.	4G	.	1r	.
4D	.	.	.	4F	.	.	.
4C	.	.	.	4E	.	.	.
4AA	.	.	.	[4A	.	.	.
!!LO:LB:g=original
=52	=52	=52	=52	=52	=52	=52	=52
2BB	.	1r	.	4A]	.	1r	.
.	.	.	.	4G#i	.	.	.
2AA	-te	.	.	2A	-te	.	.
=53	=53	=53	=53	=53	=53	=53	=53
1r	.	2.c	fi-	2.e	fi-	1r	.
.	.	4B	.	4d	.	.	.
=54	=54	=54	=54	=54	=54	=54	=54
1r	.	2A	-de-	4c	.	2.cc	fi-
.	.	.	.	2f	-de-	.	.
.	.	2G	.	.	.	.	.
.	.	.	.	[4e	.	4b	.
=55	=55	=55	=55	=55	=55	=55	=55
1r	.	2F	.	4e]	.	2a	-de-
.	.	.	.	4d	.	.	.
.	.	4E	-i,	2e	-i	2g	.
*	*	*	*edit	*	*	*	*
.	.	4G	fi-	.	.	.	.
=56	=56	=56	=56	=56	=56	=56	=56
2r	.	4A	.	2r	.	2f	.
.	.	4B	.	.	.	.	.
[2C	fi-	8cL	-de-	4r	.	2e	-i
.	.	8B	.	.	.	.	.
.	.	8A	.	[4e	con-	.	.
.	.	8GJ	.	.	.	.	.
=57	=57	=57	=57	=57	=57	=57	=57
4C]	.	4A	.	4e]	.	4r	.
4BB	.	2G	.	4d	.	4g	con-
2AA	-de-	.	.	2c	-gre-	2a	-gre-
.	.	4F#i	.	.	.	.	.
=58	=58	=58	=58	=58	=58	=58	=58
2GG	-i	2G	-i	4B	-ga-	4.b	-ga-
.	.	.	.	4d	.	.	.
.	.	.	.	.	.	8aL	.
2C	con-	2r	.	4e	.	8g	.
.	.	.	.	.	.	8fJ	.
.	.	.	.	[4c	.	[4e	.
!!LO:PB:g=original
=59	=59	=59	=59	=59	=59	=59	=59
*	*	*	*Xedit	*	*	*	*
2E	-gre-	2c	con-	8cL]	.	4e]	.
.	.	.	.	8BJ	.	.	.
.	.	.	.	4G	.	4g	.
4.D	-ga-	2d	-gre-	2A	-sti,	4f	.
.	.	.	.	.	.	4a	.
8F	.	.	.	.	.	.	.
=60	=60	=60	=60	=60	=60	=60	=60
2E	.	4B	-ga-	4r	.	4.g	.
.	.	4c	.	4G	Al-	.	.
.	.	.	.	.	.	8e	.
4D	-sti,	2d	.	4A	.	4f	.
*	*edit	*	*	*	*	*	*
[4G	Al-	.	.	[4B	.	[4d	.
=61	=61	=61	=61	=61	=61	=61	=61
4G]	.	4B	.	4B]	.	4d]	.
4E	.	4G	.	4c	.	2g	.
2D	-le-	2A	.	2d	-le-	.	.
.	.	.	.	.	.	4f#i	.
=62	=62	=62	=62	=62	=62	=62	=62
2.E	-lu-	1G	-sti,	4.B	-lu-	1g	-sti,
.	.	.	.	8A	.	.	.
.	.	.	.	4G	.	.	.
4D	.	.	.	4F	.	.	.
=63	=63	=63	=63	=63	=63	=63	=63
4C	.	1r	.	4E	.	2g	Al-
4BB	.	.	.	4D	.	.	.
*	*	*	*	*	*edit	*	*
2AA	.	.	.	2C	-ia,	2f	.
=64	=64	=64	=64	=64	=64	=64	=64
2GG	-ia,	2G	Al-	4.D	al-	2g	-le-
.	.	.	.	8E	.	.	.
*	*Xedit	*	*	*	*	*	*
2D	al-	2F	.	8FL	.	4a	-lu-
.	.	.	.	8G	.	.	.
.	.	.	.	8A	.	8gL	.
.	.	.	.	8BJ	.	8fJ	.
=65	=65	=65	=65	=65	=65	=65	=65
4C	.	2G	-le-	2c	-le-	2e	.
4E	.	.	.	.	.	.	.
2D	-le-	4A	-lu-	2d	-lu-	2f	.
.	.	8GL	.	.	.	.	.
.	.	8FJ	.	.	.	.	.
!!LO:LB:g=original
=66	=66	=66	=66	=66	=66	=66	=66
2.C	-lu-	4E	.	2G	-ia,	4g	.
.	.	2G	.	.	.	2e	.
.	.	.	.	4r	.	.	.
4D	.	4F	.	[4A	al-	[4d	.
=67	=67	=67	=67	=67	=67	=67	=67
2AA	-ia,	2E	.	2A]	.	4d]	.
.	.	.	.	.	.	4c#i	.
[2A	al-	[2D	-ia,	2F	-le-	2d	-ia,
=68	=68	=68	=68	=68	=68	=68	=68
4A]	.	2D]	.	4D	.	2r	.
2F	-le-	.	.	2A	-lu-	.	.
.	.	2r	.	.	.	2f	al-
8EL	.	.	.	8GL	.	.	.
8DJ	.	.	.	8FJ	.	.	.
=69	=69	=69	=69	=69	=69	=69	=69
2C	.	2r	.	4G	.	2e	.
.	.	.	.	4.A	.	.	.
2D	-lu-	2F	al-	.	.	2f	-le-
.	.	.	.	8GL	.	.	.
.	.	.	.	8A	.	.	.
.	.	.	.	8BJ	.	.	.
=70	=70	=70	=70	=70	=70	=70	=70
4.C	.	2E	.	2c	-ia,	2g	-lu-
8BB	.	.	.	.	.	.	.
2AA	.	2F	-le-	2r	.	2cc	.
=71	=71	=71	=71	=71	=71	=71	=71
*	*edit	*	*	*	*	*	*
2GG	-ia,	2G	-lu-	2d	al-	4b	.
.	.	.	.	.	.	4dd	.
4r	.	4A	.	4e	.	4cc	.
4F	al-	4c	.	4f	-le-	[4a	.
=72	=72	=72	=72	=72	=72	=72	=72
4G	.	4B	.	8dL	-lu-	4a]	.
.	.	.	.	8BJ	.	.	.
4E	-le-	4G	.	4c	.	2g	.
2D	-lu-	2A	.	2d	.	.	.
.	.	.	.	.	.	4f#i	.
=73	=73	=73	=73	=73	=73	=73	=73
*	*Xedit	*	*	*	*Xedit	*	*
1GGl	-ia.	1Gl	-ia.	1dl	-ia.	1gl	-ia.
==	==	==	==	==	==	==	==
*-	*-	*-	*-	*-	*-	*-	*-
!!!system-decoration: [*]
!!!RDF**kern: j = editorial accidental, optional, paren up
!!!RDF**kern: i = editorial accidental
!!!RDF**kern: l = terminal breve
!!!PTL: Gaspar van Weerbeke: Collected Works. III. The Motet Cycles
!!!PPR: American Institute of Musicology
!!!PC#: Corpus Mensurabilis Musicae 106/III
!!!PDT: 1998
!!!PED: Lindmayr-Brandl, Andrea
!!!YEC: Copyright 1998, Lindmayr-Brandl, Andrea
!!!YEM: CC-BY-SA 4.0 (https://creativecommons.org/licenses/by-nc/4.0/legalcode)
!!!EED: Mair-Gruber, Roland
!!!EEV: 2021/11/15
